betafeatures-icon-VisualEditor.svg

<?xml version="1.0" encoding="UTF-8" standalone="no"?>
<!-- Created with Inkscape (http://www.inkscape.org/) -->

<svg
   xmlns:dc="http://purl.org/dc/elements/1.1/"
   xmlns:cc="http://creativecommons.org/ns#"
   xmlns:rdf="http://www.w3.org/1999/02/22-rdf-syntax-ns#"
   xmlns:svg="http://www.w3.org/2000/svg"
   xmlns="http://www.w3.org/2000/svg"
   version="1.1"
   width="264"
   height="162"
   viewBox="0 0 264 162"
   id="Layer_1"
   xml:space="preserve"><metadata
     id="metadata147"><rdf:RDF><cc:Work
         rdf:about=""><dc:format>image/svg+xml</dc:format><dc:type
           rdf:resource="http://purl.org/dc/dcmitype/StillImage" /><dc:title></dc:title></cc:Work></rdf:RDF></metadata><defs
     id="defs145" /><g
     id="g3-9"><g
       id="g5-4"><polygon
         points="263.5,152.249 254.5,158.954 254.5,42.5 215.5,42.5 215.5,155.1 211.107,151.369 203.5,156.699 203.5,42.5 48.5,42.5 48.5,153.35 38.749,161.38 24.833,151.361 13.366,161.357 0.5,151.749 0.5,0.5 263.5,0.5 "
         id="polygon7-8"
         style="fill:#ffffff" /></g><g
       id="g9-7"><g
         id="g11-9"><path
           d="m 263,1 v 150.998 l -8,5.96 V 43 42 h -1 -38 -1 v 1 111.02 l -3.274,-2.781 -0.589,-0.498 -0.633,0.441 -6.504,4.556 V 43 42 H 203 49 48 v 1 110.1 l -9.257,7.66 -13.295,-9.57 -0.645,-0.463 -0.598,0.521 -10.864,9.47 L 1,151.499 V 1 h 262 m 1,-1 H 0 V 152 L 13.391,162 24.865,152 38.756,162 49,153.6 V 43 H 203 V 157.66 L 211.078,152 216,156.18 V 43 h 38 v 116.95 l 10,-7.45 V 0 l 0,0 z"
           id="path13-5"
           style="fill:#e5e5e5" /></g></g></g><g
     id="g15-0"><path
       d="M 203,157.66 V 43 H 49 v 110.6 l 2.145,-1.6 12.555,10 13.809,-10 14.229,10 12.972,-10 12.973,10 13.811,-10 12.136,10 13.391,-10 14.229,10 12.972,-10 12.974,10 5.804,-4.34 z"
       id="path17-8"
       style="fill:#e5e5e5" /></g><g
     id="Ellipse-6"><path
       d="m 11,36 c 0,-7.732 6.268,-14 14,-14 7.732,0 14,6.268 14,14 0,7.732 -6.268,14 -14,14 -7.732,0 -14,-6.268 -14,-14 z"
       id="path20-7"
       style="fill:#e5e5e5" /></g><g
     id="g22-9"><path
       d="M 254,159.95 V 43 h -38 v 113.18 l 7.551,5.82 13.811,-10 13.891,10 2.747,-2.05 z"
       id="path24-3"
       style="fill:#e5e5e5" /></g><g
     id="g26-4"><path
       d="M 38,107 V 72 H 13 v 35 h 25 z"
       id="path28-4"
       style="fill:#e5e5e5" /></g><g
     id="g30-7"><path
       d="m 232.51,5 h 26 v 6 h -26 V 5 z"
       id="path32-0"
       style="fill:#e5e5e5" /></g><g
     id="g34-2"><rect
       width="22"
       height="6"
       x="208.50999"
       y="5"
       id="rect36-6"
       style="fill:#e5e5e5" /></g><g
     id="g38-9"><path
       d="m 142,6 v 4 H 50 V 6 h 92 m 1,-1 H 49 v 6 h 94 V 5 l 0,0 z"
       id="path40-4"
       style="fill:#e5e5e5" /></g><g
     id="g42-5"><rect
       width="22"
       height="6"
       x="184.50999"
       y="5"
       id="rect44-0"
       style="fill:#e5e5e5" /></g><g
     id="g46-2"><rect
       width="13"
       height="6"
       x="161.50999"
       y="5"
       id="rect48-3"
       style="fill:#e5e5e5" /></g><g
     id="g50-8"><rect
       width="6"
       height="6"
       x="176.50999"
       y="5"
       id="rect52-8"
       style="fill:#e5e5e5" /></g><g
     id="g54-8"><rect
       width="6"
       height="6"
       x="153.50999"
       y="5"
       id="rect56-7"
       style="fill:#e5e5e5" /></g><g
     id="g58-5"><rect
       width="32"
       height="6"
       x="9"
       y="5"
       id="rect60-0"
       style="fill:#e5e5e5" /></g><g
     id="g62-9"><path
       d="M 2,14.5 H 262"
       id="path64-4"
       style="fill:#e5e5e5" /><rect
       width="260"
       height="1"
       x="2"
       y="14"
       id="rect66-6"
       style="fill:#e5e5e5" /></g><g
     id="g68-0"><rect
       width="2"
       height="2"
       x="52"
       y="7"
       id="rect70-3"
       style="fill:#e5e5e5" /></g><g
     id="g72-5"><path
       d="M 38,59 V 54 H 13 v 5 h 25 z"
       id="path74-5"
       style="fill:#e5e5e5" /></g><g
     id="g76-6"
     style="opacity:0.2"><rect
       width="156.084"
       height="21.667"
       x="48.083"
       y="42.083"
       id="rect78-6"
       style="fill:#4f8ac8" /></g><g
     id="g80-1"><rect
       width="54"
       height="6"
       x="59"
       y="72.333"
       id="rect82-3"
       style="fill:#cdcccc" /></g><g
     id="g84-5"
     style="opacity:0.41180001"><path
       d="m 190,84.334 h -39 v 30 h 39 v -30 z m -26.348,13.043 h 1.403 l 8.7,8.604 4.725,-2.834 7.117,5.943 v 0.025 H 154.45 l 9.202,-11.738 z"
       id="path86-5"
       style="fill:#9c9c9d" /></g><g
     id="g88-0"><rect
       width="131"
       height="3"
       x="59"
       y="123.334"
       id="rect90-2"
       style="fill:#cdcccc" /></g><g
     id="g92-4"><rect
       width="104"
       height="3"
       x="59"
       y="133.334"
       id="rect94-2"
       style="fill:#cdcccc" /></g><g
     id="g96-4"><rect
       width="84"
       height="3"
       x="59"
       y="89.334"
       id="rect98-0"
       style="fill:#cdcccc" /></g><g
     id="g100-4"><rect
       width="84"
       height="3"
       x="59"
       y="99.334"
       id="rect102-0"
       style="fill:#cdcccc" /></g><g
     id="g104-7"><rect
       width="39"
       height="3"
       x="59"
       y="109.334"
       id="rect106-4"
       style="fill:#cdcccc" /></g><g
     id="g108-4"><g
       id="g110-0"><path
         d="m 59,48.333 h 25 v 10 H 59 v -10 z"
         id="path112-4"
         style="fill:#9c9c9d" /></g><g
       id="g114-2"><rect
         width="10"
         height="10"
         x="92.5"
         y="48.333"
         id="rect116-9"
         style="fill:#9c9c9d" /></g><g
       id="g118-2"><rect
         width="10"
         height="10"
         x="109.5"
         y="48.333"
         id="rect120-7"
         style="fill:#9c9c9d" /></g></g><g
     id="g122-1"><g
       id="g124-1"><g
         id="Line-3"><rect
           width="2"
           height="8.1000004"
           x="101.469"
           y="106.734"
           id="rect127-7"
           style="fill:#010101" /></g><g
         id="Line2-3"><rect
           width="2"
           height="2"
           x="101.469"
           y="104.834"
           id="rect130-8"
           style="fill:#010101" /></g><g
         id="Line3-5"><rect
           width="2"
           height="2"
           x="101.469"
           y="113.834"
           id="rect133-9"
           style="fill:#010101" /></g></g><g
       id="g135-4"><rect
         width="4.9169998"
         height="2"
         x="100.011"
         y="104.834"
         id="rect137-1"
         style="fill:#010101" /></g><g
       id="g139-0"><rect
         width="4.9169998"
         height="2"
         x="99.978996"
         y="113.834"
         id="rect141-0"
         style="fill:#010101" /></g></g></svg>

<?xml version="1.0" encoding="utf-8"?>
<!-- Generator: Adobe Illustrator 16.0.4, SVG Export Plug-In . SVG Version: 6.00 Build 0)  -->
<!DOCTYPE svg PUBLIC "-//W3C//DTD SVG 1.1//EN" "http://www.w3.org/Graphics/SVG/1.1/DTD/svg11.dtd">
<svg version="1.1" id="Layer_1" xmlns="http://www.w3.org/2000/svg" xmlns:xlink="http://www.w3.org/1999/xlink" x="0px" y="0px"
	 width="264px" height="162px" viewBox="0 0 264 162" enable-background="new 0 0 264 162" xml:space="preserve">
<g>
	<g>
		<polygon fill="#FFFFFF" points="24.833,151.361 13.366,161.357 0.5,151.749 0.5,0.5 263.5,0.5 263.5,152.249 254.5,158.954 
			254.5,42.5 215.5,42.5 215.5,155.1 211.107,151.369 203.5,156.699 203.5,42.5 48.5,42.5 48.5,153.35 38.749,161.38 		"/>
	</g>
	<g>
		<g>
			<path fill="#E5E5E5" d="M263,1v150.998l-8,5.96V43v-1h-1h-38h-1v1v111.02l-3.274-2.781l-0.589-0.498l-0.633,0.441L204,155.738V43
				v-1h-1H49h-1v1v110.1l-9.257,7.66l-13.295-9.57l-0.645-0.463l-0.598,0.521l-10.864,9.47L1,151.499V1H263 M264,0H0v152l13.391,10
				l11.474-10l13.891,10L49,153.6V43h154v114.66l8.078-5.66l4.922,4.18V43h38v116.95l10-7.45V0L264,0z"/>
		</g>
	</g>
</g>
<g>
	<path fill="#E5E5E5" d="M203,157.66V43H49v110.6l2.145-1.6L63.7,162l13.809-10l14.229,10l12.972-10l12.973,10l13.811-10l12.136,10
		l13.391-10l14.229,10l12.972-10l12.974,10L203,157.66z"/>
</g>
<g id="Ellipse">
	<path fill="#E5E5E5" d="M11,36c0-7.732,6.268-14,14-14s14,6.268,14,14s-6.268,14-14,14S11,43.732,11,36z"/>
</g>
<g>
	<path fill="#E5E5E5" d="M254,159.95V43h-38v113.18l7.551,5.82l13.811-10l13.891,10L254,159.95z"/>
</g>
<g>
	<path fill="#E5E5E5" d="M38,107V72H13v35H38z"/>
</g>
<g>
	<path fill="#E5E5E5" d="M232.51,5h26v6h-26V5z"/>
</g>
<g>
	<rect x="208.51" y="5" fill="#E5E5E5" width="22" height="6"/>
</g>
<g>
	<path fill="#E5E5E5" d="M142,6v4H50V6H142 M143,5H49v6h94V5L143,5z"/>
</g>
<g>
	<rect x="184.51" y="5" fill="#E5E5E5" width="22" height="6"/>
</g>
<g>
	<rect x="161.51" y="5" fill="#E5E5E5" width="13" height="6"/>
</g>
<g>
	<rect x="176.51" y="5" fill="#E5E5E5" width="6" height="6"/>
</g>
<g>
	<rect x="153.51" y="5" fill="#E5E5E5" width="6" height="6"/>
</g>
<g>
	<rect x="9" y="5" fill="#E5E5E5" width="32" height="6"/>
</g>
<g>
	<path fill="#E5E5E5" d="M2,14.5h260"/>
	<rect x="2" y="14" fill="#E5E5E5" width="260" height="1"/>
</g>
<g>
	<rect x="52" y="7" fill="#E5E5E5" width="2" height="2"/>
</g>
<g>
	<path fill="#E5E5E5" d="M38,59v-5H13v5H38z"/>
</g>
<g opacity="0.2" enable-background="new    ">
	<rect x="48.083" y="42.083" fill="#4F8AC8" width="156.084" height="21.667"/>
</g>
<g>
	<rect x="59" y="72.333" fill="#CDCCCC" width="54" height="6"/>
</g>
<g opacity="0.4118" enable-background="new    ">
	<path fill="#9C9C9D" d="M190,84.334h-39v30h39V84.334z M163.652,97.377h1.403l8.7,8.604l4.725-2.834l7.117,5.943v0.025H154.45
		L163.652,97.377z"/>
</g>
<g>
	<rect x="59" y="123.334" fill="#CDCCCC" width="131" height="3"/>
</g>
<g>
	<rect x="59" y="133.334" fill="#CDCCCC" width="104" height="3"/>
</g>
<g>
	<rect x="59" y="89.334" fill="#CDCCCC" width="84" height="3"/>
</g>
<g>
	<rect x="59" y="99.334" fill="#CDCCCC" width="84" height="3"/>
</g>
<g>
	<rect x="59" y="109.334" fill="#CDCCCC" width="39" height="3"/>
</g>
<g>
	<g>
		<path fill="#9C9C9D" d="M59,48.333h25v10H59V48.333z"/>
	</g>
	<g>
		<rect x="92.5" y="48.333" fill="#9C9C9D" width="10" height="10"/>
	</g>
	<g>
		<rect x="109.5" y="48.333" fill="#9C9C9D" width="10" height="10"/>
	</g>
</g>
<g>
	<g>
		<g id="Line">
			<rect x="101.469" y="106.734" fill="#010101" width="2" height="8.1"/>
		</g>
		<g id="Line2">
			<rect x="101.469" y="104.834" fill="#010101" width="2" height="2"/>
		</g>
		<g id="Line3">
			<rect x="101.469" y="113.834" fill="#010101" width="2" height="2"/>
		</g>
	</g>
	<g>
		<rect x="100.011" y="104.834" fill="#010101" width="4.917" height="2"/>
	</g>
	<g>
		<rect x="99.979" y="113.834" fill="#010101" width="4.917" height="2"/>
	</g>
</g>
</svg>
